X:525
T:Dum Pater Familias
S:Codex Calixtinus
Z:Jack Campin, http://www.campin.me.uk/
F:Jack Campin's Nine-Note Tunebook
% last edit 03-02-2013
N:chant of pilgrims to Compostela
N:Ultreya! simplified, from a bagpipe site, attributed to Philip Pickett
M:C
L:1/8
Q:1/4=80
K:GDor
B2 G2 d2 d2|d2 c2 (3cBA G2|A2 B2 c2 B2|G2 A2 G4||
d2 d2 dc d2|d2 c2 (3cBA G2|A2 B2 c2 B2|G2 A2 G4||
GD GA B2 c2|c2 A2   F4    |G2 G2 AB A2|G2 F2 G4||
B2 A2 G2 F2|B2 c2   d4    |d2 d2 AB c2|B2 A2 G4||
A2 G2 F2 GF|B2 c2   d4    |d2 d2 AB c2|B2 A2 G4|]

